img/sparkles.svg

<svg width="56" height="56" viewBox="0 0 56 56" fill="none" xmlns="http://www.w3.org/2000/svg">
<path fill-rule="evenodd" clip-rule="evenodd" d="M14 5.59998C15.5464 5.59998 16.8 6.85358 16.8 8.39998V11.2H19.6C21.1464 11.2 22.4 12.4536 22.4 14C22.4 15.5464 21.1464 16.8 19.6 16.8H16.8V19.6C16.8 21.1464 15.5464 22.4 14 22.4C12.4536 22.4 11.2 21.1464 11.2 19.6V16.8H8.40001C6.85361 16.8 5.60001 15.5464 5.60001 14C5.60001 12.4536 6.85361 11.2 8.40001 11.2H11.2V8.39998C11.2 6.85358 12.4536 5.59998 14 5.59998ZM14 33.6C15.5464 33.6 16.8 34.8536 16.8 36.4V39.2H19.6C21.1464 39.2 22.4 40.4536 22.4 42C22.4 43.5464 21.1464 44.8 19.6 44.8H16.8V47.6C16.8 49.1464 15.5464 50.4 14 50.4C12.4536 50.4 11.2 49.1464 11.2 47.6V44.8H8.40001C6.85361 44.8 5.60001 43.5464 5.60001 42C5.60001 40.4536 6.85361 39.2 8.40001 39.2H11.2V36.4C11.2 34.8536 12.4536 33.6 14 33.6Z" fill="#FF7500"/>
<path fill-rule="evenodd" clip-rule="evenodd" d="M33.5999 5.59998C34.8703 5.59998 35.9815 6.45533 36.3066 7.68348L39.6084 20.157L48.9991 25.5747C49.8658 26.0747 50.3999 26.9993 50.3999 28C50.3999 29.0006 49.8658 29.9252 48.9991 30.4253L39.6084 35.843L36.3066 48.3165C35.9815 49.5446 34.8703 50.4 33.5999 50.4C32.3294 50.4 31.2182 49.5446 30.8931 48.3165L27.5913 35.843L18.2008 30.4253C17.334 29.9252 16.8 29.0006 16.8 28C16.8 26.9993 17.334 26.0747 18.2008 25.5747L27.5913 20.157L30.8931 7.68348C31.2182 6.45533 32.3294 5.59998 33.5999 5.59998Z" fill="#FF7500"/>
</svg>

<svg xmlns="http://www.w3.org/2000/svg" width="56" height="56" fill="none"><path fill="#FF7500" fill-rule="evenodd" d="M14 5.6a2.8 2.8 0 0 1 2.8 2.8v2.8h2.8a2.8 2.8 0 1 1 0 5.6h-2.8v2.8a2.8 2.8 0 1 1-5.6 0v-2.8H8.4a2.8 2.8 0 1 1 0-5.6h2.8V8.4A2.8 2.8 0 0 1 14 5.6Zm0 28a2.8 2.8 0 0 1 2.8 2.8v2.8h2.8a2.8 2.8 0 1 1 0 5.6h-2.8v2.8a2.8 2.8 0 1 1-5.6 0v-2.8H8.4a2.8 2.8 0 1 1 0-5.6h2.8v-2.8a2.8 2.8 0 0 1 2.8-2.8ZM33.6 5.6a2.8 2.8 0 0 1 2.707 2.083l3.301 12.474L49 25.575a2.8 2.8 0 0 1 0 4.85l-9.39 5.418-3.302 12.473a2.8 2.8 0 0 1-5.414 0l-3.302-12.473-9.39-5.418a2.8 2.8 0 0 1 0-4.85l9.39-5.418 3.302-12.474A2.8 2.8 0 0 1 33.6 5.6Z" clip-rule="evenodd"/></svg>
